places/scalable/folder-brown-private.svg

<svg xmlns="http://www.w3.org/2000/svg" style="isolation:isolate" width="256" height="256"><path d="M53.039 21C16.724 21 13 23.055 13 59.371v52.167h230V79.563c0-36.316-3.724-42.102-40.039-42.102h-89.336L97.198 21H53.039z" fill="#957552"/><path d="M53.039 70.384C16.722 70.384 13 74.114 13 110.429v84.524C13 231.269 16.722 235 53.039 235h149.922c36.317 0 40.039-3.731 40.039-40.047V93.969c0-36.316-3.722-40.047-40.039-40.047H119.53l-16.438 16.462H53.039z" fill="#AE8E6C"/><linearGradient id="a" y1=".5" x2="0" y2="-.5" gradientTransform="matrix(230 0 0 181.078 13 53.922)" gradientUnits="userSpaceOnUse"><stop offset="0%" stop-opacity=".07" stop-color="#fff"/><stop offset="67.282%" stop-opacity="0" stop-color="#fcefe8"/></linearGradient><path d="M53.039 70.384C16.722 70.384 13 74.114 13 110.429v84.524C13 231.269 16.722 235 53.039 235h149.922c36.317 0 40.039-3.731 40.039-40.047V93.969c0-36.316-3.722-40.047-40.039-40.047H119.53l-16.438 16.462H53.039z" fill="url(#a)"/><g opacity=".4"><radialGradient id="b" fx=".5" fy=".136" cx=".5" cy=".5" r=".272" gradientTransform="matrix(230 0 0 60.62 13 21)" gradientUnits="userSpaceOnUse"><stop offset="0%" stop-color="#fff"/><stop offset="100%" stop-opacity=".204" stop-color="#fff"/></radialGradient><path d="M53.039 21C16.724 21 13 23.055 13 59.371v2.059c0-36.316 3.724-38.373 40.039-38.373h44.159l16.427 16.461h89.336c36.315 0 40.039 5.786 40.039 42.102v-2.057c0-36.316-3.724-42.102-40.039-42.102h-89.336L97.198 21H53.039z" fill="url(#b)"/></g><g opacity=".4"><radialGradient id="c" fx=".482" fy=".211" cx=".5" cy=".5" r=".272" gradientTransform="matrix(230 0 0 58.565 13 53.922)" gradientUnits="userSpaceOnUse"><stop offset="0%" stop-color="#fff"/><stop offset="100%" stop-opacity=".204" stop-color="#fff"/></radialGradient><path d="M119.53 53.922l-16.438 16.462H53.039C16.724 70.384 13 74.112 13 110.427v2.06c0-36.316 3.724-40.046 40.039-40.046h50.053l16.438-16.46h83.431c36.315 0 40.039 3.727 40.039 40.043v-2.057c0-36.316-3.724-40.045-40.039-40.045H119.53z" fill="url(#c)"/></g><path d="M243 167.096l-65.715 65.845h25.676c36.315 0 40.039-3.727 40.039-40.043v-25.802z" fill="#FFF" opacity=".1"/><path d="M13 192.898v2.057C13 231.271 16.724 235 53.039 235h149.922c36.315 0 40.039-3.729 40.039-40.045v-2.057c0 36.316-3.724 40.043-40.039 40.043H53.039c-36.315 0-40.039-3.727-40.039-40.043z" opacity=".2"/><g opacity=".62"><path d="M86.34 114.499c-3.903 0-7.056.358-9.785 1.436-2.729 1.078-4.966 3.078-6.24 5.508-2.549 4.858-2.23 10.519-2.315 18.237v24.64c.09 7.718-.233 13.379 2.315 18.237 1.273 2.43 3.511 4.43 6.24 5.508 2.729 1.078 5.882 1.436 9.785 1.436h23.335c3.903 0 7.056-.358 9.785-1.436 2.729-1.077 4.951-3.078 6.225-5.508 2.216-4.223 2.226-9.311 2.256-15.571l14.59-.03 4.219-3.706 3.75 3.75 3.75-3.75L158 167l3.75-3.75 7.5 7.5L188 152l-15-15-45.059.015c0-6.26-.075-11.348-2.256-15.571-1.273-2.43-3.511-4.43-6.24-5.508-2.729-1.079-5.868-1.437-9.771-1.437H86.34zm0 7.5h23.335c3.388 0 5.671.392 7.017.923 1.345.532 1.83 1.001 2.358 2.007 1.055 2.012 1.364 7.083 1.45 14.839v4.746l49.394-.015 7.5 7.5-8.144 8.145-7.5-7.5-3.75 3.75-3.75-3.75-3.75 3.75-3.413-3.414-7.383 6.475-19.204.044v4.732c-.082 7.756-.397 12.827-1.45 14.839-.525 1.005-1.012 1.475-2.358 2.006-1.347.532-3.629.923-7.017.923H86.34c-3.389 0-5.686-.391-7.032-.923-1.345-.531-1.816-1.001-2.343-2.006-1.052-2.006-1.377-7.077-1.465-14.795V139.722c.09-7.718.413-12.789 1.465-14.795.525-1.006.998-1.475 2.343-2.007 1.347-.532 3.643-.923 7.032-.923v.002zm4.16 22.5a7.5 7.5 0 1 0 0 15 7.5 7.5 0 0 0 0-15z" fill="#FFF"/></g></svg>

<?xml version="1.0" standalone="no"?><!-- Generator: Gravit.io -->
<svg xmlns="http://www.w3.org/2000/svg" 
  xmlns:xlink="http://www.w3.org/1999/xlink" style="isolation:isolate" viewBox="0 0 256 256" width="256" height="256">
  <switch>
    <g>
      <g id="folder">
        <path d=" M 53.039 21 C 16.724 21 13 23.055 13 59.371 L 13 111.538 L 243 111.538 L 243 79.563 C 243 43.247 239.276 37.461 202.961 37.461 L 113.625 37.461 L 97.198 21 L 53.039 21 Z " id="orange" fill="#957552"/>
        <path d=" M 53.039 70.384 C 16.722 70.384 13 74.114 13 110.429 L 13 194.953 C 13 231.269 16.722 235 53.039 235 L 202.961 235 C 239.278 235 243 231.269 243 194.953 L 243 93.969 C 243 57.653 239.278 53.922 202.961 53.922 L 119.53 53.922 L 103.092 70.384 L 53.039 70.384 Z " id="change-color-easy" fill="#AE8E6C"/>
        <linearGradient id="_lgradient_33" x1="0" y1="0.5" x2="2.83276944882399e-16" y2="-0.5" gradientTransform="matrix(230,0,0,181.078,13,53.922)" gradientUnits="userSpaceOnUse">
          <stop offset="0%" stop-opacity="0.07" style="stop-color:rgb(255,255,255)"/>
          <stop offset="67.28219512106674%" stop-opacity="0" style="stop-color:rgb(252,239,232)"/>
        </linearGradient>
        <path d=" M 53.039 70.384 C 16.722 70.384 13 74.114 13 110.429 L 13 194.953 C 13 231.269 16.722 235 53.039 235 L 202.961 235 C 239.278 235 243 231.269 243 194.953 L 243 93.969 C 243 57.653 239.278 53.922 202.961 53.922 L 119.53 53.922 L 103.092 70.384 L 53.039 70.384 Z " id="gradient white" fill="url(#_lgradient_33)"/>
        <g opacity="0.4">
          <radialGradient id="_rgradient_65" fx="0.5000000213726793" fy="0.13577386516315215" cx="0.5" cy="0.5" r="0.27154159375000003" gradientTransform="matrix(230,0,0,60.62,13,21)" gradientUnits="userSpaceOnUse">
            <stop offset="0%" stop-opacity="1" style="stop-color:rgb(255,255,255)"/>
            <stop offset="100%" stop-opacity="0.20392157" style="stop-color:rgb(255,255,255)"/>
          </radialGradient>
          <path d=" M 53.039 21 C 16.724 21 13 23.055 13 59.371 L 13 61.43 C 13 25.114 16.724 23.057 53.039 23.057 L 97.198 23.057 L 113.625 39.518 L 202.961 39.518 C 239.276 39.518 243 45.304 243 81.62 L 243 79.563 C 243 43.247 239.276 37.461 202.961 37.461 L 113.625 37.461 L 97.198 21 L 53.039 21 Z " id="white" fill="url(#_rgradient_65)"/>
        </g>
        <g opacity="0.4">
          <radialGradient id="_rgradient_66" fx="0.48214287810452355" fy="0.2108154047287485" cx="0.5" cy="0.5" r="0.27154159375" gradientTransform="matrix(230,0,0,58.565,13,53.922)" gradientUnits="userSpaceOnUse">
            <stop offset="0%" stop-opacity="1" style="stop-color:rgb(255,255,255)"/>
            <stop offset="100%" stop-opacity="0.20392157" style="stop-color:rgb(255,255,255)"/>
          </radialGradient>
          <path d=" M 119.53 53.922 L 103.092 70.384 L 53.039 70.384 C 16.724 70.384 13 74.112 13 110.427 L 13 112.487 C 13 76.171 16.724 72.441 53.039 72.441 L 103.092 72.441 L 119.53 55.981 L 202.961 55.981 C 239.276 55.981 243 59.708 243 96.024 L 243 93.967 C 243 57.651 239.276 53.922 202.961 53.922 L 119.53 53.922 Z " id="white" fill="url(#_rgradient_66)"/>
        </g>
        <g opacity="0.1">
          <path d=" M 243 167.096 L 177.285 232.941 L 202.961 232.941 C 239.276 232.941 243 229.214 243 192.898 L 243 167.096 Z " id="white" fill="rgb(255,255,255)"/>
        </g>
        <g opacity="0.2">
          <path d=" M 13 192.898 L 13 194.955 C 13 231.271 16.724 235 53.039 235 L 202.961 235 C 239.276 235 243 231.271 243 194.955 L 243 192.898 C 243 229.214 239.276 232.941 202.961 232.941 L 53.039 232.941 C 16.724 232.941 13 229.214 13 192.898 Z " id="dark" fill="rgb(0,0,0)"/>
        </g>
      </g>
      <g opacity="0.62">
        <path d=" M 86.34 114.499 C 82.437 114.499 79.284 114.857 76.555 115.935 C 73.826 117.013 71.589 119.013 70.315 121.443 C 67.766 126.301 68.085 131.962 68 139.68 L 68 139.71 L 68 164.29 L 68 164.32 C 68.09 172.038 67.767 177.699 70.315 182.557 C 71.588 184.987 73.826 186.987 76.555 188.065 C 79.284 189.143 82.437 189.501 86.34 189.501 L 109.675 189.501 C 113.578 189.501 116.731 189.143 119.46 188.065 C 122.189 186.988 124.411 184.987 125.685 182.557 C 127.901 178.334 127.911 173.246 127.941 166.986 L 142.531 166.956 L 146.75 163.25 L 150.5 167 L 154.25 163.25 L 158 167 L 161.75 163.25 L 169.25 170.75 L 188 152 L 173 137 L 127.941 137.015 C 127.941 130.755 127.866 125.667 125.685 121.444 C 124.412 119.014 122.174 117.014 119.445 115.936 C 116.716 114.857 113.577 114.499 109.674 114.499 L 86.34 114.499 Z  M 86.34 121.999 L 109.675 121.999 C 113.063 121.999 115.346 122.391 116.692 122.922 C 118.037 123.454 118.522 123.923 119.05 124.929 C 120.105 126.941 120.414 132.012 120.5 139.768 L 120.5 144.514 L 169.894 144.499 L 177.394 151.999 L 169.25 160.144 L 161.75 152.644 L 158 156.394 L 154.25 152.644 L 150.5 156.394 L 147.087 152.98 L 139.704 159.455 L 120.5 159.499 L 120.5 164.231 C 120.418 171.987 120.103 177.058 119.05 179.07 C 118.525 180.075 118.038 180.545 116.692 181.076 C 115.345 181.608 113.063 181.999 109.675 181.999 L 86.34 181.999 C 82.951 181.999 80.654 181.608 79.308 181.076 C 77.963 180.545 77.492 180.075 76.965 179.07 C 75.913 177.064 75.588 171.993 75.5 164.275 L 75.5 164.23 L 75.5 139.767 L 75.5 139.722 C 75.59 132.004 75.913 126.933 76.965 124.927 C 77.49 123.921 77.963 123.452 79.308 122.92 C 80.655 122.388 82.951 121.997 86.34 121.997 L 86.34 121.999 Z  M 90.5 144.499 C 86.358 144.499 83 147.857 83 151.999 C 83 156.141 86.358 159.499 90.5 159.499 C 94.642 159.499 98 156.141 98 151.999 C 98 147.857 94.642 144.499 90.5 144.499 Z " id="private" fill="#FFFFFF"/>
      </g>
    </g>
  </switch>
</svg>
